src/frontend/src/images/instagram.svg

<svg width="16" height="16" viewBox="0 0 16 16" fill="none" xmlns="http://www.w3.org/2000/svg">
<path d="M7.99997 0.626465C10.0755 0.626465 10.3344 0.634104 11.1487 0.672298C11.9623 0.710493 12.5161 0.838062 13.0034 1.02751C13.5076 1.22153 13.9323 1.48431 14.3571 1.90827C14.7455 2.29014 15.0461 2.75205 15.2378 3.26188C15.4265 3.74848 15.5548 4.30306 15.593 5.1166C15.6289 5.93091 15.6389 6.18987 15.6389 8.26535C15.6389 10.3408 15.6312 10.5998 15.593 11.4141C15.5548 12.2276 15.4265 12.7815 15.2378 13.2688C15.0466 13.7789 14.746 14.241 14.3571 14.6224C13.9751 15.0107 13.5132 15.3113 13.0034 15.5032C12.5168 15.6919 11.9623 15.8202 11.1487 15.8584C10.3344 15.8943 10.0755 15.9042 7.99997 15.9042C5.92449 15.9042 5.66553 15.8966 4.85122 15.8584C4.03768 15.8202 3.48386 15.6919 2.9965 15.5032C2.48647 15.3118 2.02447 15.0112 1.64289 14.6224C1.25438 14.2406 0.953809 13.7787 0.762126 13.2688C0.572681 12.7822 0.445112 12.2276 0.406917 11.4141C0.371014 10.5998 0.361084 10.3408 0.361084 8.26535C0.361084 6.18987 0.368723 5.93091 0.406917 5.1166C0.445112 4.3023 0.572681 3.74924 0.762126 3.26188C0.953278 2.75174 1.25392 2.2897 1.64289 1.90827C2.02458 1.51963 2.48655 1.21904 2.9965 1.02751C3.48386 0.838062 4.03692 0.710493 4.85122 0.672298C5.66553 0.636395 5.92449 0.626465 7.99997 0.626465ZM7.99997 4.44591C6.98699 4.44591 6.0155 4.84831 5.29922 5.5646C4.58293 6.28088 4.18053 7.25237 4.18053 8.26535C4.18053 9.27833 4.58293 10.2498 5.29922 10.9661C6.0155 11.6824 6.98699 12.0848 7.99997 12.0848C9.01295 12.0848 9.98444 11.6824 10.7007 10.9661C11.417 10.2498 11.8194 9.27833 11.8194 8.26535C11.8194 7.25237 11.417 6.28088 10.7007 5.5646C9.98444 4.84831 9.01295 4.44591 7.99997 4.44591ZM12.9653 4.25494C12.9653 4.00169 12.8647 3.75882 12.6856 3.57975C12.5065 3.40068 12.2636 3.30008 12.0104 3.30008C11.7571 3.30008 11.5143 3.40068 11.3352 3.57975C11.1561 3.75882 11.0555 4.00169 11.0555 4.25494C11.0555 4.50818 11.1561 4.75105 11.3352 4.93013C11.5143 5.1092 11.7571 5.2098 12.0104 5.2098C12.2636 5.2098 12.5065 5.1092 12.6856 4.93013C12.8647 4.75105 12.9653 4.50818 12.9653 4.25494ZM7.99997 5.97369C8.60776 5.97369 9.19066 6.21513 9.62043 6.6449C10.0502 7.07467 10.2916 7.65757 10.2916 8.26535C10.2916 8.87314 10.0502 9.45604 9.62043 9.88581C9.19066 10.3156 8.60776 10.557 7.99997 10.557C7.39219 10.557 6.80929 10.3156 6.37952 9.88581C5.94975 9.45604 5.70831 8.87314 5.70831 8.26535C5.70831 7.65757 5.94975 7.07467 6.37952 6.6449C6.80929 6.21513 7.39219 5.97369 7.99997 5.97369Z" fill="#3B3A39"/>
</svg>

<svg xmlns="http://www.w3.org/2000/svg" width="16" height="16" fill="none" viewBox="0 0 16 16"><path fill="#3b3a39" d="M8 .63c2.08 0 2.33 0 3.15.04s1.37.17 1.85.36c.5.2.93.45 1.36.88q.59.58.88 1.35c.19.49.31 1.04.35 1.86.04.81.05 1.07.05 3.15 0 2.07 0 2.33-.05 3.14a6 6 0 0 1-.35 1.86q-.3.77-.88 1.35-.58.6-1.36.88c-.48.2-1.04.32-1.85.36s-1.07.04-3.15.04-2.33 0-3.15-.04A6 6 0 0 1 3 15.5q-.78-.29-1.36-.88a4 4 0 0 1-.88-1.35 6 6 0 0 1-.35-1.86C.37 10.6.36 10.34.36 8.27s0-2.34.05-3.15c.04-.82.16-1.37.35-1.86q.3-.77.88-1.35.58-.6 1.36-.88A6 6 0 0 1 4.85.67C5.67.64 5.92.63 8 .63m0 3.82a3.82 3.82 0 1 0 0 7.63 3.82 3.82 0 0 0 0-7.63m4.97-.2a.95.95 0 1 0-1.91 0 .95.95 0 0 0 1.9 0M8 5.97a2.3 2.3 0 1 1 0 4.59 2.3 2.3 0 0 1 0-4.59"/></svg>
